X: 42641
T: Whiskey Before Breakfast
R: reel
M: 4/4
K: Dmajor
|:A,B,DE D2 DE|F2AB AFED|G2 BG F2 AF|EDEF EDB,G,|
A,B,DE D2 DE|F2AB AFED|G2 BG F2 AF|EDEF D4:|
|:A d2 A d2 cd|e2 ef ec A2|A e2 A e2 ef|gfed cABc|
d2 fd c2 ec|BABc BA FD|G2 BG F2 AF|EDEF D4:|

